X:203
T:Maid In The Moon. (p)1670.PLFD1.203, The
A:England; London
T:Valentine's Day. (p)1670.PLFD1.203
M:6/4
L:1/4
Q:3/4=90
B:Playford, Dancing Master,4th Ed.,1670.
O:
H:1670.
Z:Chris Partington <www.cpartington.plus>
K:Gdor
G|c>dcA2F|B>cAG2A/B/|c>dBA2c|cBGA2:|
|:A/B/|c>dcA2F|F3-F2d/e/|f>gfd2B|B3-B2e/f/|g>agf>gf|
e3-e2e/f/|gded=Bg|gded2d|d2gg^f2|g3-g2:|

